X:1376
T:Cuiribh Sreang Air Na Bodaich
O:england
S:Alexander Mackay, A collection of Reels...
B:NLS Glen.344
N:Mc16 in Gore's Scottish Fiddle Music Index
N:Gore guesses 1802, a note (by Murdoch Henderson?)
N:on the titlepage says there's an 1832 watermark.
M:C|
L:1/8
K:A Dorian
e|BGd2 eBd2|BGd2 eged|BGd2 ged2|BGdB ({B}A2)A:|
e|dBg2 aeg2|dBg2 fgae|dBg2 aeg2|dGdB     A2 Ae|
dBg2 aeg2|dBg2 fgae|degb ageg|dGdB {(B}A2)A|]


